X:1
T:Gloria in Excelsis
T:Gloria in Excelsis Deo
T:Arranged for Children's Voices and Student Trumpet Players
T:Antonio Vivaldi arr. David Schaller, 2017
T:Text and Music: Public Domain
T:Text and Music: Public Domain
T:Text and Music: Public Domain
T:Text and Music: Public Domain
T:Text and Music: Public Domain
C:Antonio Vivaldi
Z:Text and Music: Public Domain
%%score { 1 | 2 } { 3 | 4 } { 5 | 6 }
L:1/8
Q:1/4=100
M:4/4
K:C
V:1 treble transpose=-2 nm="B♭ Trumpet I/II" snm="B♭ Tpt. I/II"
V:2 treble transpose=-2 
V:3 treble nm="Voice I/II" snm="Vo. I/II"
V:4 treble 
V:5 treble nm="Piano" snm="Pno."
V:6 bass 
V:1
[K:D] DdDD DdDD | D2 z2 z4 | DdDD DdDD | D2 z2 z4 | DdDD DdDD | DF/G/ A/G/A/G/ FF/G/ A/G/A/G/ | %6
 FDDD DdDD | D2 z A BBBB | BBBB AAAA | AAAA GGGG | GGGG FFFF | FFFF EEEE | E2 z2 E2 z2 | %13
 E2 z2 E2 z2 | E2 z2 z4 | FFFF EEEE | EEEE D3/2 D/ D2 | D3/2 D/ D2 z4 | z8 | z8 | z8 | z8 | z8 | %23
 z8 | z8 | z8 | z8 | z4 dddd | d2 z2 dddd | d2 z2 eeee | e2 z2 eeee | e2 z2 ffff | f2 z2 ffff | %33
 f2 z2 ffff | ffff f2 z2 | z8 | z8 | z8 | z8 | z8 | z8 | z8 | z8 | z8 | z8 | z8 | z8 | z8 | z8 | %49
 z8 | z8 | z8 | z8 | z8 | z8 | z8 | z8 | z8 | DdDD DdDD | D2 z2 z4 | DdDD DdDD | D2 z A BBBB | %62
 BBBB AAAA | AAAA GGGG | G2 z2 G2 z2 | G2 z2 G2 z2 | G2 z2 !fermata!z4 | f3/2 f/ f2 eeee | %68
 eeee f2 z2 | f2 z2 D2 F2 | A2 z D A2 A2 | !fermata!D2 z2 z4 |] %72
V:2
[K:D] DDDD DDDD | DF/G/ AG FF/G/ AG | FDDD DDDD | D2 z2 z4 | DDDD DDDD | %5
 DD/E/ F/E/F/E/ DD/E/ F/E/F/E/ | DDDD DDDD | D2 z F FFFF | GGGG EEEE | FFFF DDDD | EEEE CCCC | %11
 DDDD B,B,B,B, | C2 z2 C2 z2 | C2 z2 C2 z2 | C2 z2 z4 | DDDD DDDD | CCCC D3/2 z/ z2 | z8 | z8 | %19
 z8 | z8 | z8 | z8 | z8 | z8 | z8 | z8 | z4 AAAA | A2 z2 BBBB | B2 z2 BBBB | B2 z2 cccc | %31
 c2 z2 cccc | c2 z2 dddd | d2 z2 cccc | cccc d2 z2 | z8 | z8 | z8 | z8 | z8 | z8 | z8 | z8 | z8 | %44
 z8 | z8 | z8 | z8 | z8 | z8 | z8 | z8 | z8 | z8 | z8 | z8 | z8 | z8 | DDDD DDDD | %59
 DF/G/ AG FF/G/ AG | FDDD DDDD | D2 z F FFFF | GGGG EEEE | FFFF DDDD | E2 z2 E2 z2 | E2 z2 E2 z2 | %66
 E2 z2 !fermata!z4 | d3/2 d/ d2 dddd | cccc d2 z2 | d2 z2 DD/E/ FF/G/ | A2 z D A2 A2 | %71
 !fermata!D2 z2 z4 |] %72
V:3
 z8 | z8 | z8 | z8 | z8 | z8 | z8 | z8 | z8 | z8 | z8 | z8 | z8 | z8 | z8 | z8 | z4 c>c c2 | %17
w: ||||||||||||||||Glo- ri- a,|
 c>c c2 z4 | z4 B>B B2 | B>B B2 z4 | z4 B4 | c4 d4 | c4 c4 | B4 z4 | B4 c4 | d4 c4 | c4 B4 | %27
w: glo- ri- a,|glo- ri- a,|glo- ri- a,|in|ex- cel-|sis De-|o,|in ex-|cel- sis|De- o.|
 z4 G3 G | G4 A3 A | A4 A3 A | A4 B3 B | B4 B4 | B4 c4 | A4 (A4 | ^G4) A4 | z8 | z8 | A3 A A4 | %38
w: Glo- ri-|a, glo- ri-|a, glo- ri-|a, glo- ri-|a in|ex- cel-|sis De-|* o.|||Glo- ri- a,|
 A3 A A4 | A4 A4 | (A8 | ^G8 | =G8- | G8) | ^F8 | ^F8- | F8 | ^F8 | z8 | B2 B B B2 B2 | c4 c4 | %51
w: glo- ri- a|in ex-|cel-||||sis|De-||o.||Glo- ri- a in ex-|cel- sis,|
 A2 A A A2 A2 | B4 B4 | B8 | A4 z4 | c2 c c c2 c2 | B4 c4 | (c4 B4) | c4 z4 | z8 | z8 | %61
w: glo- ri- a in ex-|cel- sis|De-|o.|Glo- ri- a in ex-|cel- sis|De- *|o.|||
 G2 G2 (A4- | A4 G4- | G4 F4- | F8) | F8- | F2 z2 !fermata!z4 | c3/2 c/ c2 c c c c | B4 c4 | z8 | %70
w: in ex- cel-||||sis,|_|glo- ri- a in ex- cel- sis|De- o.||
 z8 | z8 |] %72
w: ||
V:4
 z8 | z8 | z8 | z8 | z8 | z8 | z8 | z8 | z8 | z8 | z8 | z8 | z8 | z8 | z8 | z8 | z4 E>E E2 | %17
w: ||||||||||||||||Glo- ri- a,|
 E>E E2 z4 | z4 D>D D2 | D>D D2 z4 | z4 D4 | E4 F4 | E4 D4 | D4 z4 | D4 E4 | F4 E4 | D4 D4 | %27
w: glo- ri- a,|glo- ri- a,|glo- ri- a,|in|ex- cel-|sis De-|o,|in ex-|cel- sis|De- o.|
 z4 E3 E | E4 A3 A | A4 ^F3 F | ^F4 B3 B | B4 ^G4 | E4 E4 | E4 E4- | E4 E4 | z8 | z8 | E3 E E4 | %38
w: Glo- ri-|a, glo- ri-|a, glo- ri-|a, glo- ri-|a in|ex- cel-|sis De-|* o.|||Glo- ri- a,|
 E3 E E4 | F4 F4 | (^F8 | E4 D4 | ^C8- | C8) | D8 | ^C8- | C8 | D8 | z8 | B2 B B B2 B2 | c4 c4 | %51
w: glo- ri- a|in ex-|cel-||||sis|De-||o.||Glo- ri- a in ex-|cel- sis,|
 A2 A A A2 A2 | B4 B4 | G8 | ^F4 z4 | ^F2 F F F2 F2 | G4 E4 | D8 | E4 z4 | z8 | z8 | z4 E2 E2 | %62
w: glo- ri- a in ex-|cel- sis|De-|o.|Glo- ri- a in ex-|cel- sis|De-|o,|||in ex-|
 (F4 D4 | E4 C4 | D8) | D8- | D2 z2 !fermata!z4 | E3/2 E/ E2 D D D D | D4 E4 | z8 | z8 | z8 |] %72
w: cel- *|||sis,|_|glo- ri- a in ex- cel- sis|De- o.||||
V:5
 CcCC CcCC | CE/F/ GF EE/F/ GF | EcCC CcCC | %3
 C[ce]/[df]/ [eg]/[df]/[eg]/[df]/ [ce][ce]/[df]/ [eg]/[df]/[eg]/[df]/ | [ce]cCC CcCC | %5
 C[ce]/[df]/ [eg]/[df]/[eg]/[df]/ [ce][ce]/[df]/ [eg]/[df]/[eg]/[df]/ | [ce]cCC CcCC | %7
 C[ce]/[df]/ [eg]/[df]/[eg]/[df]/ [ea]/c/[ea]/c/ [ea]/c/[ea]/c/ | %8
 [fa]/d/[fa]/d/ [fa]/d/[fa]/d/ [dg]/B/[dg]/B/ [dg]/B/[dg]/B/ | %9
 [eg]/c/[eg]/c/ [eg]/c/[eg]/c/ [cf]/A/[cf]/A/ [cf]/A/[cf]/A/ | %10
 [df]/B/[df]/B/ [df]/B/[df]/B/ [Be]/G/[Be]/G/ [Be]/G/[Be]/G/ | %11
 [ce]/A/[ce]/A/ [ce]/A/[ce]/A/ [Ad]/F/[Ad]/F/ [Ad]/F/[Ad]/F/ | %12
 [df]/B/[df]/B/ [df]/B/[df]/B/ [df]/B/[df]/B/ [df]/B/[df]/B/ | %13
 [FB]/D/[FB]/D/ [FB]/D/[FB]/D/ [B,D]/G,/[B,D]/G,/ [B,D]/G,/[B,D]/G,/ | [F,B,]2 z2 z4 | %15
 [eg]/c/[eg]/c/ [eg]/c/[eg]/c/ [dg]/c/[dg]/c/ [dg]/c/[dg]/c/ | %16
 [dg]/B/[dg]/B/ [dg]/B/[dg]/B/ [cegc']>[cegc'] [cegc']2 | %17
 [cegc']>[cegc'] [cegc']c c[ce]/[df]/ [eg]/[df]/[eg]/[df]/ | [ce]e/f/ g/e/d/c/ [DGB]>[DGB] [DGB]2 | %19
 [DGB]>[DGB] [DGB]G G[Bd]/[ce]/ [df]/[ce]/[df]/[ce]/ | [Bd]d/e/ f/e/d/c/ [DGB]4 | [EGc]4 [FBd]4 | %22
 [EGc]4 [DGc]4 | [DGB]4 G,2 z2 | [DGB]4 [EGc]4 | [FBd]4 [EGc]4 | [DGc]4 [DGB]4 | %27
 G,2 z2 [CEG]c[CEG][CEG] | [CEG]c[CEG][CEG] [CFA]c[CFA][CFA] | [CFA]c[CFA][CFA] [D^FA]d[DFA][DFA] | %30
 [D^FA]d[DFA][DFA] [DGB]d[DGB][DGB] | [DGB]d[DGB][DGB] [E^GB]e[EGB][EGB] | %32
 [E^GB]e[EGB][EGB] [Ac]a[Ac][Ac] | [Ac]a[Ac][Ac] [AB]a[AB][AB] | [^GB]^g[GB][GB] [Ac]AA,A, | %35
 A,[Ac]/[Bd]/ [ce]/[Bd]/[ce]/[Bd]/ [Ac][Ac]/[Bd]/ [ce]/[Bd]/[ce]/[Bd]/ | %36
 [Ac][Ac]/[Bd]/ [ce]/[Bd]/[ce]/[Bd]/ [Ac]c/d/ e/d/c/B/ | [CEA]A[CEA][CEA] [CEA]c[CEA][CEA] | %38
 [^CEA]^c[CEA][CEA] [CEA]c[CEA][CEA] | [DFA]d[DFA][DFA] [DFA]d[DFA][DFA] | %40
 [^D^FA]^d[DFA][DFA] [DFA]d[DFA][DFA] | [E^GB]e[EGB][EGB] [EGB]e[EGB][EGB] | %42
 [EG^c]e[EGc][EGc] [EGc]e[EGc][EGc] | [G^A^c]e[GAc][GAc] [GAc]e[GAc][GAc] | %44
 [D^FB]d[DFB][DFB] [DFB]d[DFB][DFB] | [^C^FB]^c[CFB][CFB] [CFB]c[CFB][CFB] | %46
 [^C^F^A]^c[CFA][CFA] [CFA]c[CFA][CFA] | [B,D^F]BB,B, B,BB,B, | %48
 B,[Bd]/[^ce]/ [d^f]/[ce]/[df]/[ce]/ [Bd]d/e/ f/e/d/c/ | B2 [E^GB][EGB] [DEGB]2 [DEGB]2 | %50
 [EAc]e[EAc][EAc] [EAc]e[EAc][EAc] | [CD^FA]2 [CDFA][CDFA] [CDFA]2 [CDFA]2 | %52
 [DGB]d[DGB][DGB] [DGB]d[DGB][DGB] | [EGB]e[EGB][EGB] [EGB]e[EGB][EGB] | [^FA]dDD DdDD | %55
 [D^FAc]2 [DFAc] [DFAc] [DFAc]2 [DFAc]2 | [GBd]g[GBd][GBd] [Gce]g[Gce][Gce] | %57
 [Gcd]g[Gcd][Gcd] [GBd]g[GBd][GBd] | [Gce]cCC CcCC | CE/F/ GF EE/F/ GF | EcCC CcCC | %61
 [CEG]2 [ceg]2 [ea]/c/[ea]/c/ [ea]/c/[ea]/c/ | %62
 [fa]/d/[fa]/d/ [fa]/d/[fa]/d/ [dg]/B/[dg]/B/ [dg]/B/[dg]/B/ | %63
 [eg]/c/[eg]/c/ [eg]/c/[eg]/c/ [cf]/A/[cf]/A/ [cf]/A/[cf]/A/ | %64
 [df]/B/[df]/B/ [df]/B/[df]/B/ [df]/B/[df]/B/ [df]/B/[df]/B/ | %65
 [Bd]/F/[Bd]/F/ [Bd]/F/[Bd]/F/ [FB]/D/[FB]/D/ [FB]/D/[FB]/D/ | [B,D]2 z2 !fermata!z4 | %67
 [cegc']>[cegc'] [cegc']2 [dg]/c/[dg]/c/ [dg]/c/[dg]/c/ | %68
 [dg]/B/[dg]/B/ [dg]/B/[dg]/B/ [ce]/g/[ce]/g/ [ce]/g/[ce]/g/ | %69
 [Gc]/e/[Gc]/e/ [EG]/c/[EG]/c/ [CE]C/D/ EE/F/ | G2 z C [CDG]2 [B,DG]2 | !fermata![E,G,C]2 z2 z4 |] %72
V:6
 C,CC,C, C,CC,C, | C,C,/D,/ E,D, C,C,/D,/ E,D, | C,CC,C, C,CC,C, | C,2 z2 z4 | C,CC,C, C,CC,C, | %5
 C,2 z2 z4 | C,CC,C, C,CC,C, | C,CC,C, C,CC,C, | B,,B,B,,B,, B,,B,B,,B,, | %9
 A,,A,A,,A,, A,,A,A,,A,, | G,,G,G,,G,, G,,G,G,,G,, | F,,F,F,,F,, F,,F,F,,F,, | %12
 G,,G,G,,G,, G,,G,G,,G,, | G,,G,G,,G,, G,,G,G,,G,, | [G,,D,]2 z2 z4 | C,CC,C, G,,G,G,,G,, | %16
 G,,G,G,,G,, C,CC,C, | C,CC,C, C,2 z2 | z4 G,,G,G,,G,, | G,,G,G,,G,, G,,2 z2 | z4 G,,G,G,,G,, | %21
 G,,G,G,,G,, G,,G,G,,G,, | G,,G,G,,G,, G,,G,G,,G,, | G,,G,G,,G,, G,,2 z2 | %24
 G,,G,G,,G,, G,,G,G,,G,, | G,,G,G,,G,, G,,G,G,,G,, | G,,G,G,,G,, G,,G,G,,G,, | G,,2 z2 C,CC,C, | %28
 C,CC,C, F,,F,F,,F,, | F,,F,F,,F,, D,DD,D, | D,DD,D, G,,G,G,,G,, | G,,G,G,,G,, E,^G,E,E, | %32
 E,^G,E,E, E,A,E,E, | E,A,E,E, E,A,E,E, | E,^G,E,E, A,,A,A,,A,, | A,,2 z2 z4 | [A,,A,]2 z2 z4 | %37
 A,,A,A,,A,, A,,A,A,,A,, | G,,G,G,,G,, G,,G,G,,G,, | F,,F,F,,F,, F,,F,F,,F,, | %40
 B,,B,B,,B,, B,,B,B,,B,, | E,,E,E,,E,, E,,E,E,,E,, | E,,E,E,,E,, E,,E,E,,E,, | %43
 E,,E,E,,E,, E,,E,E,,E,, | B,,B,B,,B,, B,,B,B,,B,, | ^F,,^F,F,,F,, F,,F,F,,F,, | %46
 ^F,,^F,F,,F,, F,,F,F,,F,, | B,,B,B,,B,, B,,B,B,,B,, | B,,2 z2 z4 | ^G,,^G,G,,G,, G,,G,G,,G,, | %50
 A,,A,A,,A,, A,,A,A,,A,, | ^F,,^F,F,,F,, F,,F,F,,F,, | G,,G,G,,G,, G,,G,G,,G,, | %53
 ^C,^CC,C, C,CC,C, | D,DD,D, D,DD,D, | D,DD,D, D,DD,D, | G,,G,G,,G,, C,CC,C, | %57
 G,,G,G,,G,, G,,G,G,,G,, | C,CC,C, C,CC,C, | C,C,/D,/ E,D, C,C,/D,/ E,D, | C,CC,C, C,CC,C, | %61
 C,CC,C, C,CC,C, | B,,B,B,,B,, B,,B,B,,B,, | A,,A,A,,A,, A,,A,A,,A,, | G,,G,G,,G,, G,,G,G,,G,, | %65
 G,,G,G,,G,, G,,G,G,,G,, | [G,,F,]2 z2 !fermata!z4 | C,CC,C, G,,G,G,,G,, | G,,G,G,,G,, C,2 z2 | %69
 C,2 z2 C,C,/D,/ E,E,/F,/ | G,2 z C, G,2 G,,2 | C,2 z2 z4 |] %72

